src/app/img/ui/remove-layer.svg

<?xml version="1.0" encoding="UTF-8"?>
<svg version="1.1" viewBox="0 0 26.667 26.667" xmlns="http://www.w3.org/2000/svg">
<path d="m10.875 0.87109a1.0501 1.0501 0 0 0-1.0488 1.0508v0.27734h-3.9785a1.0501 1.0501 0 0 0-1.0508 1.0488v0.87695a1.0501 1.0501 0 0 0 1.0508 1.0488h14.209a1.0501 1.0501 0 0 0 1.0508-1.0488v-0.87695a1.0501 1.0501 0 0 0-1.0508-1.0488h-3.8379v-0.27734a1.0501 1.0501 0 0 0-1.0488-1.0508h-4.2949zm-4.7168 5.4238a1.0501 1.0501 0 0 0-1.0508 1.0488v16.752a1.0501 1.0501 0 0 0 1.0508 1.0508h13.869a1.0501 1.0501 0 0 0 1.0508-1.0508v-16.752a1.0501 1.0501 0 0 0-1.0508-1.0488h-13.869zm2.4922 1.6191a1.5002 1.5002 0 0 1 1.5215 1.5215v12.627a1.5002 1.5002 0 1 1-3 0v-12.627a1.5002 1.5002 0 0 1 1.4785-1.5215zm4.5469 0a1.5002 1.5002 0 0 1 1.5234 1.5215v12.627a1.5002 1.5002 0 1 1-3 0v-12.627a1.5002 1.5002 0 0 1 1.4766-1.5215zm4.5762 0a1.5002 1.5002 0 0 1 1.5234 1.5215v12.627a1.5002 1.5002 0 1 1-3 0v-12.627a1.5002 1.5002 0 0 1 1.4766-1.5215z" fill="#4f4f4f"/>
</svg>

<svg viewBox="0 0 26.67 26.67" xmlns="http://www.w3.org/2000/svg"><path d="M10.88.87a1.05 1.05 0 0 0-1.05 1.05v.28H5.85A1.05 1.05 0 0 0 4.8 3.25v.87a1.05 1.05 0 0 0 1.05 1.05h14.2a1.05 1.05 0 0 0 1.06-1.05v-.87a1.05 1.05 0 0 0-1.05-1.05h-3.84v-.28A1.05 1.05 0 0 0 15.17.87h-4.3zM6.16 6.3A1.05 1.05 0 0 0 5.1 7.34V24.1a1.05 1.05 0 0 0 1.05 1.05h13.87a1.05 1.05 0 0 0 1.05-1.05V7.34a1.05 1.05 0 0 0-1.05-1.05H6.16zm2.49 1.62a1.5 1.5 0 0 1 1.52 1.53v12.62a1.5 1.5 0 1 1-3 0V9.44A1.5 1.5 0 0 1 8.65 7.9zm4.55 0a1.5 1.5 0 0 1 1.52 1.53v12.62a1.5 1.5 0 1 1-3 0V9.44A1.5 1.5 0 0 1 13.2 7.9zm4.57 0a1.5 1.5 0 0 1 1.53 1.53v12.62a1.5 1.5 0 1 1-3 0V9.44a1.5 1.5 0 0 1 1.47-1.53z" fill="#4f4f4f"/></svg>
